!!!!SEGMENT: Wil2002-Saluto_te.krn
!!!id: Wil2002
!!!AGN: Motet
!!!SCT: Zenck (1950)
!!!voices: 4
!!!COM: Adrian Willaert
!!!OTL: Saluto te
**kern	**kern	**kern	**kern
*part4	*part3	*part2	*part1
*staff4	*staff3	*staff2	*staff1
*I"Bassus	*I"Tenor	*I"Altus	*I"Superius
*I'B	*I'T	*I'A	*I'S
*clefF4	*clefGv2	*clefGv2	*clefG2
*k[b-]	*k[b-]	*k[b-]	*k[b-]
*F:	*F:	*F:	*F:
*M2/1	*M2/1	*M2/1	*M2/1
*met(C|)	*met(C|)	*met(C|)	*met(C|)
!!section: Prima pars: Saluto te
!!!OMD: Prima pars: Saluto te
=1	=1	=1	=1
0r	0r	0r	0cc
=2	=2	=2	=2
0r	0r	0r	1cc
.	.	.	1f
=3	=3	=3	=3
0r	0r	0f	1cc
.	.	.	1dd
=4	=4	=4	=4
0r	0r	1f	2cc
.	.	.	2dd
.	.	1B-y	2dd
.	.	.	4cc
.	.	.	4b-y
=5	=5	=5	=5
0r	0r	1f	2cc
.	.	.	2dd
.	.	1g	1b-y
=6	=6	=6	=6
0r	0r	2d	2.a
.	.	2f	.
.	.	.	4b-y
.	.	2f	2cc
.	.	4e	(2dd
.	.	4d	.
=7	=7	=7	=7
0r	0r	2e	4dd)
.	.	.	4cc
.	.	2f	1cc
.	.	1d	.
.	.	.	2bni
=8	=8	=8	=8
0r	1r	2.c	2.cc
.	.	4d	4b-y
.	[1c	4e	2g
.	.	4f	.
.	.	[2g	[2cc
=9	=9	=9	=9
0r	1c]	4g]	2cc]
.	.	4f	.
.	.	1f	4b-y
.	.	.	4a
.	1c	.	1g
.	.	2e	.
=10	=10	=10	=10
1r	1F	2d	[0a
.	.	4c	.
.	.	4B-y	.
[1F	1c	2A	.
.	.	2F	.
=11	=11	=11	=11
1F]	1d	0f	0a]
1F	2c	.	.
.	2d	.	.
=12	=12	=12	=12
1BB-y	2d	2r	2r
.	4c	2f	2.b-y
.	4B-y	.	.
1F	2c	2f	.
.	.	.	4a
.	2d	2f	[2a
=13	=13	=13	=13
1G	1B-y	2e	2a]
.	.	1d	2g
2D	2.A	.	[1a
2F	.	4c	.
.	4B-y	4B-y	.
=14	=14	=14	=14
2F	2c	2A	2a]
4E	2.d	2B-y	4g
4D	.	.	4f
2E	.	2G	2g
.	4c	.	.
2F	(2c	[2A	[2f
=15	=15	=15	=15
1D	2c)	2A]	2f]
.	2B-y	4G	4e
.	.	4F	4d
[1C	2.c	1G	1e
.	4B-y	.	.
=16	=16	=16	=16
1C]	2A	0c	1r
.	2.G	.	.
1C	.	.	[1e
.	4F	.	.
.	4E	.	.
.	4D	.	.
=17	=17	=17	=17
2AA	2C	1r	2e]
2FF	1F	.	2f
1C	.	[1c	2g
.	2E	.	2g
=18	=18	=18	=18
1FF	1F	2c]	1a
.	.	2d	.
1r	1r	2e	2g
.	.	2e	[2cc
=19	=19	=19	=19
0r	0r	1f	2cc]
.	.	.	4b-y
.	.	.	4a
.	.	2e	2.g
.	.	[2g	.
.	.	.	4a
=20	=20	=20	=20
0r	1r	2g]	2b-y
.	.	4f	2cc
.	.	4e	.
.	2r	2d	2dd
.	[2A	2e	[2cc
=21	=21	=21	=21
0r	2A]	2c	2cc]
.	2B-y	1f	4b-y
.	.	.	4a
.	2c	.	2.g
.	2c	2e	.
.	.	.	4a
=22	=22	=22	=22
2r	1d	1f	2b-y
1D	.	.	1a
.	2A	1r	.
2E	[2c	.	2g
=23	=23	=23	=23
2F	2c]	0r	1a
2F	4B-y	.	.
.	4A	.	.
1G	4B-y	.	1r
.	4G	.	.
.	[2d	.	.
=24	=24	=24	=24
2D	2d]	0r	0r
1F	2c	.	.
.	2A	.	.
4E	[2c	.	.
4D	.	.	.
=25	=25	=25	=25
2C	2c]	0r	0r
2D	4B-y	.	.
.	4A	.	.
2.BB-y	2G	.	.
.	[2F	.	.
4C	.	.	.
=26	=26	=26	=26
4D	4F]	0r	1r
4E	4G	.	.
1F	2A	.	.
.	1G	.	1g
2E	.	.	.
=27	=27	=27	=27
2.F	0F	0r	1a
4G	.	.	.
4A	.	.	[1cc
4B-y	.	.	.
[2A	.	.	.
=28	=28	=28	=28
2A]	2r	1r	2cc]
4G	1c	.	4b-y
4F	.	.	4a
2G	.	1c	2g
2F	2A	.	2a
=29	=29	=29	=29
1BB-y	1B-y	1d	2f
.	.	.	2g
1r	1F	[1f	1a
=30	=30	=30	=30
0r	0r	2f]	2d
.	.	4e	1a
.	.	4d	.
.	.	2c	.
.	.	2d	2a
=31	=31	=31	=31
0r	0r	2B-y	2b-y
.	.	2c	4a
.	.	.	4g
.	.	1d	2f
.	.	.	2a
=32	=32	=32	=32
0r	0r	2G	2g
.	.	1d	1f
.	.	2d	4e
.	.	.	4d
=33	=33	=33	=33
0r	0r	2e-i	2c
.	.	4d	1g
.	.	4c	.
.	.	2B-y	.
.	.	2d	2f
=34	=34	=34	=34
0r	0r	2c	2e
.	.	1B-y	2.d
.	.	.	4e
.	.	4A	4f
.	.	4G	4g
=35	=35	=35	=35
0r	0r	2F	2a
.	.	2.G	2b-y
.	.	.	2.g
.	.	4A	.
.	.	4B-y	.
.	.	4c	4a
=36	=36	=36	=36
0r	0r	2d	2b-y
.	.	2e	1cc
.	.	2f	.
.	.	[2g	4b-y
.	.	.	4a
=37	=37	=37	=37
0r	1r	2g]	2g
.	.	4f	1cc
.	.	4e	.
.	1G	2d	.
.	.	2d	2bni
=38	=38	=38	=38
0r	1A	2c	2cc
.	.	1f	1a
.	[1c	.	.
.	.	2e	2g
=39	=39	=39	=39
1F	2c]	1f	1a
.	4B-y	.	.
.	4A	.	.
2E	2G	2r	2.cc
[2F	2A	[2c	.
.	.	.	4b-y
=40	=40	=40	=40
2F]	2F	2c]	2a
2E	2G	2c	2g
2D	1A	2F	2f
2C	.	[2A	2e
=41	=41	=41	=41
1BB-y	1D	2A]	1d
.	.	2G	.
1AA	2r	1A	1c
.	[2A	.	.
=42	=42	=42	=42
1.D	2A]	1F	0r
.	2A	.	.
.	2B-y	1r	.
2C	4A	.	.
.	4G	.	.
=43	=43	=43	=43
2D	2F	1r	0r
2F	2A	.	.
2E	2G	2r	.
[2D	[2F	2A	.
=44	=44	=44	=44
2D]	2F]	2A	1r
4C	4E	2B-y	.
4BB-y	4D	.	.
2AA	2C	2c	2r
2BB-y	[2G	2B-y	2d
=45	=45	=45	=45
2C	2G]	1A	2e
2D	2F	.	2f
2.GG	2E	2G	2g
.	[2D	[2B-y	2g
4AA	.	.	.
=46	=46	=46	=46
4BB-y	4D]	2B-]	1.f
4C	4E	.	.
1D	4F	4A	.
.	4G	4G	.
.	2A	1F	.
2BB-y	2B-y	.	4e
.	.	.	4d
=47	=47	=47	=47
1C	2.G	1c	2.e
.	4A	.	4f
2BB-y	2B-y	[1F	2d
2AA	[2c	.	[2a
=48	=48	=48	=48
1D	2c]	1F]	4a]
.	.	.	4g
.	2B-y	.	1f
1C	[1c	1G	.
.	.	.	2e
=49	=49	=49	=49
0FF	1c]	0A	0f
.	1r	.	.
=50	=50	=50	=50
0BB-y	0F	1r	1r
.	.	1B-y	1d
=51	=51	=51	=51
1BB-y	1F	1B-y	1d
1BB-y	1F	1B-y	1d
=52	=52	=52	=52
0GG	0G	1.B-y	1.d
.	.	4A	2e
.	.	4G	.
=53	=53	=53	=53
0D	1.A	0F	1f
.	.	.	1a
.	2F	.	.
=54	=54	=54	=54
1r	0F	1c	2a
.	.	.	2a
1BB-y	.	[1d	[1b-y
=55	=55	=55	=55
1BB-y	1B-y	2d]	2b-]
.	.	2d	4a
.	.	.	4g
1BB-y	2B-y	1d	2f
.	2B-y	.	[2g
=56	=56	=56	=56
0C	2.G	0c	4g]
.	.	.	4f
.	.	.	4e
.	4F	.	4d
.	1G	.	1e
=57	=57	=57	=57
1.D	0F	2A	2d
.	.	1d	1f
2BB-y	.	2d	2f
=58	=58	=58	=58
1BB-y	1r	1d	1f
1r	[1c	1e	1g
=59	=59	=59	=59
1.F	2c]	1f	1a
.	2c	.	.
.	1c	[1a	2f
2F	.	.	[2cc
=60	=60	=60	=60
1F	0d	2a]	2cc]
.	.	2a	4b-y
.	.	.	4a
1G	.	2.g	1b-y
.	.	4f	.
=61	=61	=61	=61
1A	0d	4e	[0a
.	.	4d	.
.	.	1f	.
2F	.	.	.
[2A	.	4e	.
.	.	4d	.
=62	=62	=62	=62
2A]	2r	2e	1a]
4G	1c	1f	.
4F	.	.	.
1G	.	.	2r
.	2B-y	2e	[2b-y
=63	=63	=63	=63
1.F	1c	2.f	4b-]
.	.	.	4a
.	.	.	1a
.	.	8eL	.
.	.	8dJ	.
.	2A	2.c	.
4E	[2c	.	4g
4D	.	4d	4f
=64	=64	=64	=64
2C	2c]	2e	2g
2F	4B-y	2f	1a
.	4A	.	.
1G	1B-y	1d	.
.	.	.	2g
=65	=65	=65	=65
0F	[0A	1r	1a
.	.	1f	2r
.	.	.	2cc
=66	=66	=66	=66
0r	1A]	2e	2cc
.	.	2f	2cc
.	1r	2.d	1b-y
.	.	4e	.
=67	=67	=67	=67
1F	2r	1f	1a
.	2c	.	.
2E	2c	1r	1r
2F	2c	.	.
=68	=68	=68	=68
2.D	1B-y	0r	0r
4E	.	.	.
2F	1A	.	.
[2F	.	.	.
=69	=69	=69	=69
2F]	1c	0r	0r
2E	.	.	.
2D	2B-y	.	.
[2C	2A	.	.
=70	=70	=70	=70
2C]	2.G	0r	0r
4BB-y	.	.	.
4AA	4A	.	.
2GG	2B-y	.	.
2FF	[2A	.	.
=71	=71	=71	=71
2.AA	2A]	1r	0r
.	4G	.	.
4BB-y	4F	.	.
2C	2E	2r	.
2D	2F	[2f	.
=72	=72	=72	=72
1C	1G	2f]	1cc
.	.	2e	.
1r	1r	2d	2b-y
.	.	[2c	2a
=73	=73	=73	=73
0r	0r	2c]	2.g
.	.	4B-y	.
.	.	4A	4a
.	.	2G	2b-y
.	.	2F	2a
=74	=74	=74	=74
0r	0r	1c	2a
.	.	.	4g
.	.	.	4f
.	.	2r	1e
.	.	2c	.
=75	=75	=75	=75
0r	0r	2B-y	2r
.	.	2G	2g
.	.	2.d	2f
.	.	.	2d
.	.	4c	.
=76	=76	=76	=76
0r	0r	4d	2.a
.	.	4e	.
.	.	1f	.
.	.	.	4g
.	.	.	4a
.	.	.	4b-y
.	.	4e	[2cc
.	.	4d	.
=77	=77	=77	=77
0r	0r	2c	2cc]
.	.	2d	4b-y
.	.	.	4a
.	.	2e	2g
.	.	[2f	2f
=78	=78	=78	=78
0r	1G	2f]	1b-y
.	.	2e	.
.	2F	1f	[1a
.	2D	.	.
=79	=79	=79	=79
2r	2.A	1c	0a]
2F	.	.	.
.	4G	.	.
2F	4A	1r	.
.	4B-y	.	.
4E	[2c	.	.
4D	.	.	.
=80	=80	=80	=80
2C	2c]	0r	0r
2D	4B-y	.	.
.	4A	.	.
2E	2G	.	.
[2F	2F	.	.
=81	=81	=81	=81
2F]	1G	2r	1g
2E	.	1c	.
1F	1F	.	1a
.	.	[2d	.
=82	=82	=82	=82
0r	0r	2d]	2f
.	.	2B-y	1g
.	.	2.c	.
.	.	.	[2c
.	.	4B-y	.
=83	=83	=83	=83
0r	0r	4A	4c]
.	.	4G	4d
.	.	1c	2e
.	.	.	1d
.	.	2Bni	.
=84	=84	=84	=84
1r	2r	4c	1c
.	.	4B-y	.
.	1c	4A	.
.	.	4G	.
1F	.	1A	1r
.	[2d	.	.
=85	=85	=85	=85
1G	2d]	1r	2r
.	2B-y	.	1g
2E	2.c	2r	.
[2F	.	[2c	[2a
.	4B-y	.	.
=86	=86	=86	=86
2F]	4A	2c]	2a]
.	4G	.	.
2.BB-y	2.B-y	1d	4g
.	.	.	4f
.	.	.	2g
4C	4A	.	.
2D	2F	2B-y	[2f
=87	=87	=87	=87
1C	1G	1.c	2f]
.	.	.	2e
2.F	[1A	.	1f
.	.	[2F	.
4E	.	.	.
=88	=88	=88	=88
4D	1A]	4F]	1r
4C	.	4G	.
1F	.	2A	.
.	1r	1G	2r
4E	.	.	[2g
4D	.	.	.
=89	=89	=89	=89
2E	1c	2r	2g]
2F	.	2F	1a
1D	1d	2A	.
.	.	[2B-y	2f
=90	=90	=90	=90
2.E-X	2B-y	2B-]	2.g
.	1c	2.G	.
4D	.	.	4f
2C	.	.	2e
.	.	4A	.
2BB-y	[2F	2B-y	2d
=91	=91	=91	=91
1F	4F]	2.A	2c
.	4G	.	.
.	2A	.	1f
.	.	8GL	.
.	.	8FJ	.
1C	1G	1c	.
.	.	.	2e
=	=	=	=
00FF	00F	00c	00f
=||	=||	=||	=||
*M2/1	*M2/1	*M2/1	*M2/1
*met(C|)	*met(C|)	*met(C|)	*met(C|)
!!section: Secunda pars: Rogo te
!!!OMD: Secunda pars: Rogo te
1F	0r	0r	0r
2F	.	.	.
2E	.	.	.
=92	=92	=92	=92
1D	0r	0r	0r
1C	.	.	.
=93	=93	=93	=93
2r	1c	0r	0r
2E	.	.	.
2F	2c	.	.
[2D	2B-y	.	.
=94	=94	=94	=94
4D]	1A	0r	0r
4C	.	.	.
1F	.	.	.
.	1G	.	.
2E	.	.	.
=95	=95	=95	=95
1F	2r	1r	0r
.	2A	.	.
2.D	2B-y	1f	.
.	[2A	.	.
4E	.	.	.
=96	=96	=96	=96
2F	4A]	2f	0r
.	4G	.	.
2C	1c	2e	.
1G	.	1d	.
.	2Bni	.	.
=97	=97	=97	=97
1C	1c	2c	1r
.	.	2e	.
1r	2.A	2f	1cc
.	.	[2e	.
.	4B-y	.	.
=98	=98	=98	=98
0r	2c	4e]	2cc
.	.	4d	.
.	2G	1g	2b-y
.	1d	.	1a
.	.	2f	.
=99	=99	=99	=99
0r	2r	2g	1g
.	2G	4f	.
.	.	4e	.
.	2G	[1d	2r
.	2F	.	2a
=100	=100	=100	=100
0r	2G	2d]	2b-y
.	4F	2f	2.a
.	4E	.	.
.	2D	2f	.
.	.	.	4g
.	2C	2e	[2cc
=101	=101	=101	=101
0r	1G	1d	2cc]
.	.	.	2bni
.	2.A	2c	1cc
.	.	[2F	.
.	4B-y	.	.
=102	=102	=102	=102
2r	0c	4F]	1a
.	.	4E	.
2F	.	4F	.
.	.	4G	.
2F	.	4A	2a
.	.	4B-y	.
2E	.	[2c	2g
=103	=103	=103	=103
1D	1F	2c]	1f
.	.	2Bni	.
1C	1r	1c	2.e
.	.	.	4f
=104	=104	=104	=104
2r	1c	0r	1g
2E	.	.	.
2F	2c	.	[1f
[2D	2B-y	.	.
=105	=105	=105	=105
4D]	1A	0r	1f]
4C	.	.	.
1F	.	.	.
.	1G	.	1r
2E	.	.	.
=106	=106	=106	=106
1F	2r	1r	0r
.	2A	.	.
2.D	2B-y	1f	.
.	[2A	.	.
4E	.	.	.
=107	=107	=107	=107
2F	4A]	2f	0r
.	4G	.	.
2C	1c	2e	.
1G	.	1d	.
.	2Bni	.	.
=108	=108	=108	=108
1C	2c	2c	1cc
.	1A	2e	.
1r	.	2f	2cc
.	2B-y	[2d	2b-y
=109	=109	=109	=109
0r	1F	4d]	1a
.	.	4c	.
.	.	1f	.
.	1c	.	1g
.	.	2e	.
=110	=110	=110	=110
1r	0F	1f	2r
.	.	.	2a
[1D	.	1f	2b-y
.	.	.	[2a
=111	=111	=111	=111
2D]	0r	2f	4a]
.	.	.	4g
2E	.	2e	1cc
2F	.	1d	.
2G	.	.	2bni
=112	=112	=112	=112
1A	2r	1c	1cc
.	1c	.	.
1A	.	[1F	1a
.	2c	.	.
=113	=113	=113	=113
2F	1c	2F]	2a
2E	.	2G	2g
1D	1F	2A	1f
.	.	2B-y	.
=114	=114	=114	=114
1C	1G	1c	1e
[1BB-y	[1B-y	[1d	[1f
=115	=115	=115	=115
2BB-]	2B-]	2d]	2f]
2C	2G	2c	2e
1GG	1G	1B-y	1d
=116	=116	=116	=116
0AA	1E	0r	1c
.	[1c	.	2r
.	.	.	[2e
=117	=117	=117	=117
0r	2c]	1r	2e]
.	2B-y	.	2d
.	1A	2r	2e
.	.	[2c	2f
=118	=118	=118	=118
0r	1G	2c]	2g
.	.	2B-y	2b-y
.	1r	2c	1a
.	.	2d	.
=119	=119	=119	=119
0r	0r	2e	2g
.	.	2f	1cc
.	.	1d	.
.	.	.	2bni
=120	=120	=120	=120
0r	0r	1c	2.cc
.	.	.	8b-yL
.	.	.	8aJ
.	.	2r	2.g
.	.	2c	.
.	.	.	4a
=121	=121	=121	=121
0r	0r	2d	2b-y
.	.	1f	2a
.	.	.	1g
.	.	2e	.
=122	=122	=122	=122
0r	0r	2d	2r
.	.	2c	2a
.	.	2.B-y	2b-y
.	.	.	[2dd
.	.	8AL	.
.	.	8GJ	.
=123	=123	=123	=123
0r	0r	2F	2dd]
.	.	2A	2cc
.	.	4G	2b-y
.	.	4A	.
.	.	4B-y	4a
.	.	4c	4g
=124	=124	=124	=124
0r	0r	4d	2f
.	.	4B-y	.
.	.	1c	2a
.	.	.	4g
.	.	.	4f
.	.	4B-y	4g
.	.	4A	4a
=125	=125	=125	=125
0r	0r	2G	2b-y
.	.	2F	2.a
.	.	2.c	.
.	.	.	4g
.	.	.	[2g
.	.	4B-y	.
=126	=126	=126	=126
0r	2r	2A	4g]
.	.	.	4e
.	2A	2F	2a
.	2B-y	2G	4g
.	.	.	4f
.	[2d	2B-y	4e
.	.	.	4d
=127	=127	=127	=127
1AA	2d]	1A	1e
.	2c	.	.
2.BB-y	2B-y	1r	1d
.	4A	.	.
4C	4G	.	.
=128	=128	=128	=128
2D	2F	1A	0r
2F	2A	.	.
1E-X	4G	2B-y	.
.	4F	.	.
.	4G	2c	.
.	4A	.	.
=129	=129	=129	=129
2D	2B-y	1d	0r
1F	2.A	.	.
.	.	2c	.
.	4G	.	.
2E	[2G	2c	.
=130	=130	=130	=130
1D	2G]	4c	1r
.	.	8BniL	.
.	.	8AJ	.
.	2F	2Bni	.
[1C	1G	2.c	2r
.	.	.	[2g
.	.	4d	.
=131	=131	=131	=131
1C]	1.c	1e	2g]
.	.	.	2g
1F	.	1A	[1a
.	2c	.	.
=132	=132	=132	=132
2F	1c	1f	2a]
1F	.	.	2a
.	1c	2f	[1a
2F	.	[2f	.
=133	=133	=133	=133
1D	1d	2f]	1a]
.	.	2f	.
1G	1B-y	1d	1b-y
=134	=134	=134	=134
2C	1c	1.e	1g
1C	.	.	.
.	2.c	.	[1cc
2C	.	2e	.
.	4B-y	.	.
=135	=135	=135	=135
1.F	4A	2.f	2cc]
.	4G	.	.
.	1A	.	2cc
.	.	8eL	.
.	.	8dJ	.
.	.	2c	1cc
4E	2F	2f	.
4D	.	.	.
=136	=136	=136	=136
2C	2G	2e	1cc
2C	2A	2e	.
1BB-y	1B-y	2d	1dd
.	.	[2f	.
=137	=137	=137	=137
1F	1.A	2f]	2.cc
.	.	2f	.
.	.	.	4b-y
2r	.	2e	4a
.	.	.	4g
[2F	2A	2f	[2a
=138	=138	=138	=138
2F]	1A	1c	2a]
2F	.	.	2f
2E	1c	2r	2g
2F	.	[2f	2a
=139	=139	=139	=139
1BB-y	1d	2f]	2.b-y
.	.	2f	.
.	.	.	4a
2.C	2G	[1e	4g
.	.	.	4f
.	[2c	.	[2g
4D	.	.	.
=140	=140	=140	=140
2E	4c]	2e]	4g]
.	4B-y	.	4f
2F	2A	2d	1f
1C	1G	1c	.
.	.	.	2e
=	=	=	=
*M3/1	*M3/1	*M3/1	*M3/1
*met(3)	*met(3)	*met(3)	*met(3)
0FF	0.F	[0.c	0f
1r	.	.	1r
=141	=141	=141	=141
1F	1%3r	0c]	1a
1F	.	.	1a
1D	.	1r	1f
=142	=142	=142	=142
1E	1c	1r	1g
1F	1c	1f	0a
1F	1A	1f	.
=143	=143	=143	=143
1G	1B-y	1d	0g
1C	1c	1e	.
1r	1A	[1f	1a
=144	=144	=144	=144
1r	1B-y	2f]	1f
.	.	4e	.
.	.	4d	.
1r	1c	1e	1.cc
1F	1F	1A	.
.	.	.	2b-y
=145	=145	=145	=145
1F	1%3r	1c	1.a
1D	.	0B-y	.
.	.	.	4g
.	.	.	4f
1E	.	.	1g
=146	=146	=146	=146
1.F	1A	1A	0a
.	1A	1r	.
2E	.	.	.
1D	1F	1r	1r
=147	=147	=147	=147
1C	1G	1r	1cc
0FF	0A	1f	1cc
.	.	1f	1a
=148	=148	=148	=148
1r	0G	1d	1b-y
1C	.	1e	0cc
1FF	1A	[1f	.
=149	=149	=149	=149
1BB-y	1F	1f]	1b-y
1C	1.c	1e	1g
1AA	.	1c	[1cc
.	2B-y	.	.
=150	=150	=150	=150
1C	1.A	1e	1cc]
0BB-y	.	1.d	0dd
.	4G	.	.
.	4F	.	.
.	1G	.	.
.	.	2e	.
=	=	=	=
*M2/1	*M2/1	*M2/1	*M2/1
*met(C|)	*met(C|)	*met(C|)	*met(C|)
1AA	0A	2f	2.cc
.	.	1e	.
.	.	.	4b-y
2r	.	.	4a
.	.	.	4g
[2F	.	4d	[2a
.	.	4c	.
=151	=151	=151	=151
2F]	1r	1d	2a]
2G	.	.	4g
.	.	.	4f
2.A	2r	1c	1e
.	[2A	.	.
4G	.	.	.
=152	=152	=152	=152
2F	2A]	0r	0r
2D	2B-y	.	.
2E	2.c	.	.
[2F	.	.	.
.	4B-y	.	.
=153	=153	=153	=153
2F]	2A	1r	0r
4E	2F	.	.
4D	.	.	.
2C	2G	2r	.
2AA	[2A	2e	.
=154	=154	=154	=154
2D	2A]	2f	1r
2D	4G	2f	.
.	4F	.	.
[1C	2.E	2.g	2r
.	.	.	2g
.	4F	4f	.
=155	=155	=155	=155
1C]	1G	4e	2g
.	.	4d	.
.	.	1c	2g
1r	[1F	.	2.cc
.	.	2A	.
.	.	.	4b-y
=156	=156	=156	=156
2r	0F]	2A	4a
.	.	.	4g
2D	.	2A	1f
2D	.	2.d	.
2D	.	.	2d
.	.	4c	.
=157	=157	=157	=157
2.G	0r	4B-y	2d
.	.	4A	.
.	.	1G	2d
4F	.	.	.
2E	.	.	2e
2D	.	2F	2f
=158	=158	=158	=158
2C	2r	1c	2g
2.F	2A	.	1a
.	2A	1F	.
4E	.	.	.
2D	2A	.	4g
.	.	.	4f
=159	=159	=159	=159
1C	1.c	1G	0e
1AA	.	2r	.
.	2A	2c	.
=160	=160	=160	=160
1FF	2A	2c	2r
.	2A	2c	2a
2r	2.d	[1f	2a
2D	.	.	2a
.	4c	.	.
=161	=161	=161	=161
2D	2B-y	2f]	2.dd
2D	2A	2f	.
.	.	.	4cc
2G	2G	2d	2b-y
2C	[2c	[2e-X	2a
=162	=162	=162	=162
2E-X	4c]	4e-X]	2g
.	4B-y	4d	.
2F	2A	4c	1f
.	.	4B-y	.
1C	1G	[1c	.
.	.	.	2e
=163	=163	=163	=163
2.F	1F	2c]	1.f
.	.	4B-y	.
4E	.	4A	.
2D	2r	1d	.
[2G	[2B-y	.	4e
.	.	.	4d
=164	=164	=164	=164
4G]	2B-]	2G	1g
4F	.	.	.
2E	4A	1c	.
.	4G	.	.
1D	2A	.	1f
.	2F	2B-y	.
=165	=165	=165	=165
0C;	0G;	0c;	0e;
=166	=166	=166	=166
00FFl	00Fl	00cl	00fl
==	==	==	==
*-	*-	*-	*-
!!!system-decoration: [*]
!!!RDF**kern: i = editorial accidental
!!!RDF**kern: l = terminal long
!!!ENC: Benjamin Ory
!!!END: 2022/2/16
!!!EED: Benjamin Ory
!!!EEV: 2022/02/06
!!!YEC: Copyright 2022 Benjamin Ory, All Rights Reserved
!!!ONB: Translated from MusicXML on 2022/02/06
